X:1
T:Title
%%score { 1 | 2 } { 3 | 4 }
L:1/8
Q:1/4=128
M:3/4
K:C
V:1 treble nm="Drawbar Organ, Soprano"
V:2 treble 
V:3 bass nm="Choir Pad, Evansville, 88.77.77"
V:4 bass 
V:1
 G4 A2 | G4 E2 | B4 A2 | A2 G4 | E4 D2 | F4 E2 | D4 F2 | E4 E2 | ^G>G G2 A2 | B4 B2 | c6- | c6 | %12
w: By~Joe~Uthup,~2018 *||||||||||||
 c>c c2 c2 | c4 c2 | d6- | d6 | c4 c2 | d4 d2 | e4 B2 | c6 | z2 A2 c2 | f4 c2 | e6 | d6 | c6- | %25
w: |||||||||||||
 c6 |] %26
w: |
V:2
 C4 C2 | C4 _B,2 | A,4 C2 | C2 B,4 | C4 C2 | C4 C2 | B,4 B,2 | D4 C2 | D>D D2 F2 | E4 ^G2 | B6 | %11
 A6 | A>A A2 A2 | ^G4 G2 | c6 | B6 | G4 F2 | B4 A2 | c4 E2 | F6 | z2 F2 [FG]2 | F4 F2 | G6 | G6 | %24
 F6 | E6 |] %26
V:3
 E,4 D,2 | E,4 C,2 | C,4 D,2 | D,2 F,4 | E,4 E,2 | F,4 E,2 | D,4 D,2 | C,4 C,2 | B,>B, B,2 A,2 | %9
 ^G,4 E,2 | E,6- | E,6 | C>C C2 C2 | C4[K:bass] F,2 | G,6- | G,6 | C4 C2 | B,4 D2 | C4 D2 | C6 | %20
 G,,,2 C2 C2 | A,4 A,2 | G,6 | F,6 | G,6- | G,6 |] %26
V:4
 C,,4 F,,2 | E,,4 G,,2 | F,,4 F,,2 | F,,2 G,,4 | A,,4 A,,2 | A,,4 G,,2 | G,,4 F,,2 | E,,4 C,,2 | %8
 E,>E, E,2 D,2 | D,4 B,,2 | A,,6- | A,,6 | F,>F, E,2 D,2 | C,4 ^G,,2 | G,,6- | G,,6 | A,4 ^G,2 | %17
 G,4 F,2 | G,4 ^G,2 | A,6 | z2 E,2 D,2 | C,4 D,2 | G,,6 | G,,6 | C,6- | C,6 |] %26

